layouts/icon-pack/misc_tent.svg

<?xml version="1.0" encoding="UTF-8"?>
<svg width="512pt" height="512pt" version="1.1" viewBox="0 0 512 512" xmlns="http://www.w3.org/2000/svg">
 <path d="m322.95 174.09s-13.523 7.0156-63.984 7.2578c-35.164 0.17188-55.277-3.418-64.266-5.6094l62.93 151.81 7.7422-19.684c0.078125-0.20703 0.16406-0.40625 0.26172-0.60547 0.058593-0.11719 0.11719-0.23438 0.17969-0.34766s0.125-0.22656 0.19141-0.33594c0.066407-0.11328 0.14063-0.22266 0.21484-0.33203 0.070313-0.10547 0.14453-0.21094 0.21875-0.31641 0.082032-0.10156 0.16406-0.20312 0.24609-0.30078 0.082031-0.10156 0.16797-0.19922 0.25391-0.29297 0.089844-0.097656 0.17969-0.1875 0.27344-0.27734 0.09375-0.09375 0.1875-0.18359 0.28125-0.26953 0.097656-0.082031 0.19531-0.16406 0.29688-0.24219 0.10156-0.082031 0.20703-0.16406 0.31641-0.24609 0.10156-0.070313 0.20312-0.13672 0.30859-0.20313 0.10938-0.078124 0.22656-0.14844 0.34375-0.21875 0.10938-0.0625 0.22656-0.125 0.33984-0.18359 0.11328-0.058594 0.22656-0.11328 0.33984-0.16797 0.125-0.054688 0.25-0.10547 0.37891-0.15234 0.11328-0.046875 0.23047-0.09375 0.34766-0.13281 0.125-0.042969 0.25-0.078125 0.37891-0.11328 0.125-0.035156 0.25-0.070312 0.375-0.10156 0.125-0.027344 0.25-0.050781 0.37891-0.074219 0.12891-0.023437 0.25781-0.042969 0.38672-0.058593 0.21875-0.03125 0.4375-0.050782 0.65625-0.058594 0.51953-0.019532 1.0391 0.011718 1.5508 0.09375 0.25781 0.039062 0.51172 0.09375 0.76172 0.16016 0.5 0.13281 0.98828 0.31641 1.4531 0.54688 0.23438 0.11719 0.46094 0.24219 0.67969 0.37891 0.066407 0.046875 0.12891 0.089844 0.19141 0.13672 0.15234 0.097656 0.30078 0.20312 0.44531 0.30859 0.41016 0.32031 0.78906 0.67969 1.1289 1.0703 0.16797 0.19922 0.32812 0.40234 0.47656 0.61328 0.44531 0.64062 0.79688 1.3438 1.0352 2.0859 0.019532 0.066406 0.035156 0.13281 0.054688 0.19922 0.11328 0.39062 0.19922 0.78906 0.25 1.1953 0.007812 0.039063 0.015625 0.082032 0.019531 0.125 0.027344 0.25781 0.046875 0.51562 0.046875 0.77344 0.003906 0.26172-0.003906 0.51953-0.027344 0.77734-0.003906 0.039062-0.011718 0.074218-0.015625 0.10937-0.050781 0.48047-0.14062 0.95313-0.27734 1.418-0.074219 0.25-0.16016 0.49219-0.25781 0.73438l-9.5742 24.34h120.66l9.5742-24.34c0.29688-0.72266 0.48047-1.4844 0.55078-2.2617 0.09375-1.0352-0.023437-2.082-0.34375-3.0742-0.078125-0.24609-0.16797-0.48828-0.27344-0.72656-0.054688-0.11719-0.11328-0.23438-0.17578-0.35156-0.050782-0.11719-0.10938-0.23047-0.17188-0.34375-0.37891-0.67969-0.86328-1.3008-1.4258-1.8359-0.1875-0.17969-0.38672-0.34766-0.58984-0.50781-0.20703-0.16016-0.41797-0.30859-0.63672-0.44531-0.082031-0.046875-0.16406-0.09375-0.24609-0.13672-0.36719-0.21484-0.75-0.40234-1.1484-0.55469-0.24219-0.089844-0.49219-0.16797-0.74219-0.23438-0.5-0.13281-1.0156-0.21484-1.5352-0.24609-0.25781-0.015625-0.51953-0.015625-0.77734 0-0.51953 0.019532-1.0352 0.089844-1.5391 0.21484-0.50391 0.125-0.99609 0.29688-1.4648 0.51953-1.832 0.85938-3.2539 2.4023-3.9648 4.293l-3.7148 9.4414-59.363-143.21zm-136.52 6.0977-56.789 137.01-3.6719-9.3281c-1.1016-2.9258-3.8477-4.9062-6.9688-5.0312-2.6484-0.10938-5.1719 1.1406-6.6914 3.3125-1.5195 2.168-1.832 4.9648-0.82812 7.418l9.5742 24.34h38.965l26.41-89.211 26.41 89.211h38.965l-65.375-157.71zm86.223 130.49c-0.011719 0-0.027344 0-0.042969 0.03125h0.007813c0.015625-0.03125 0.027344-0.03125 0.039062-0.03125 0.003906-0.003907 0.007813 0 0.007813 0h0.007812c0.003907 0 0.007813 0.03125 0.003907 0.042968-0.003907 0.03125-0.007813 0.046875-0.015626 0.082032-0.03125 0.13281-0.10937 0.36328-0.22656 0.67578-0.23438 0.62109-0.63281 1.5742-1.1367 2.7539-1.0078 2.3594-2.4492 5.6211-3.9023 8.9805-1.4531 3.3555-2.9141 6.8008-3.9688 9.5195-0.52734 1.3594-0.95313 2.5391-1.2227 3.4297-0.13672 0.44531-0.23047 0.82422-0.28125 1.1172s-0.058593 0.5-0.007812 0.61328h0.007812c-0.046875-0.10938-0.039062-0.32031 0.007813-0.60938 0.050781-0.29297 0.14844-0.66797 0.28125-1.1133 0.26953-0.89453 0.69531-2.0703 1.2227-3.4297 1.0547-2.7188 2.5156-6.1641 3.9688-9.5195 1.4531-3.3555 2.8945-6.6211 3.9023-8.9805 0.50391-1.1797 0.90234-2.1289 1.1367-2.7539 0.11719-0.3125 0.19531-0.53906 0.22656-0.67578 0.007813-0.03125 0.011719-0.0625 0.015625-0.082031 0.003906-0.03125 0-0.039063-0.003906-0.046875h-0.011719c-0.007813-0.003906-0.007813 0-0.015625 0z" fill="#fff" fill-rule="evenodd"/>
</svg>

<?xml version="1.0" encoding="UTF-8" standalone="no"?>
<!DOCTYPE svg PUBLIC "-//W3C//DTD SVG 1.1//EN" "http://www.w3.org/Graphics/SVG/1.1/DTD/svg11.dtd">
<svg width="100%" height="100%" viewBox="0 0 512 290" version="1.1" xmlns="http://www.w3.org/2000/svg" xmlns:xlink="http://www.w3.org/1999/xlink" xml:space="preserve" xmlns:serif="http://www.serif.com/" style="fill-rule:evenodd;clip-rule:evenodd;stroke-linejoin:round;stroke-miterlimit:2;">
    <g transform="matrix(1,0,0,1,-66.4874,-141.991)">
        <g transform="matrix(1.76431,0,0,1.76431,-129.175,-165.158)">
            <path d="M322.95,174.09C322.95,174.09 309.427,181.106 258.966,181.348C223.802,181.52 203.689,177.93 194.7,175.738L257.63,327.548L265.372,307.864C265.45,307.657 265.536,307.458 265.634,307.259C265.693,307.142 265.751,307.025 265.814,306.911C265.876,306.798 265.939,306.685 266.005,306.575C266.071,306.462 266.146,306.353 266.22,306.243C266.29,306.138 266.364,306.032 266.439,305.927C266.521,305.825 266.603,305.724 266.685,305.626C266.767,305.525 266.853,305.427 266.939,305.333C267.028,305.235 267.118,305.146 267.212,305.056C267.306,304.962 267.4,304.872 267.493,304.786C267.591,304.704 267.689,304.622 267.79,304.544C267.892,304.462 267.997,304.38 268.107,304.298C268.208,304.228 268.31,304.161 268.415,304.095C268.525,304.017 268.642,303.946 268.759,303.876C268.868,303.814 268.985,303.751 269.099,303.693C269.212,303.634 269.325,303.579 269.439,303.525C269.564,303.47 269.689,303.419 269.818,303.372C269.931,303.325 270.048,303.278 270.165,303.239C270.29,303.196 270.415,303.161 270.544,303.126C270.669,303.091 270.794,303.056 270.919,303.025C271.044,302.997 271.169,302.974 271.298,302.95C271.427,302.927 271.556,302.907 271.685,302.892C271.903,302.86 272.122,302.841 272.341,302.833C272.861,302.814 273.38,302.845 273.892,302.927C274.15,302.966 274.403,303.021 274.653,303.087C275.153,303.22 275.642,303.403 276.107,303.634C276.341,303.751 276.568,303.876 276.786,304.013C276.853,304.06 276.915,304.103 276.978,304.15C277.13,304.247 277.278,304.353 277.423,304.458C277.833,304.778 278.212,305.138 278.552,305.528C278.72,305.728 278.88,305.931 279.028,306.142C279.474,306.782 279.825,307.486 280.064,308.228C280.083,308.294 280.099,308.36 280.118,308.427C280.232,308.817 280.318,309.216 280.368,309.622C280.376,309.661 280.384,309.704 280.388,309.747C280.415,310.005 280.435,310.263 280.435,310.521C280.439,310.782 280.431,311.04 280.407,311.298C280.404,311.337 280.396,311.372 280.392,311.407C280.341,311.888 280.251,312.36 280.114,312.825C280.04,313.075 279.954,313.318 279.857,313.56L270.282,337.9L390.942,337.9L400.517,313.56C400.814,312.837 400.997,312.075 401.067,311.298C401.161,310.263 401.044,309.216 400.724,308.224C400.646,307.978 400.556,307.736 400.45,307.497C400.396,307.38 400.337,307.263 400.274,307.146C400.224,307.028 400.165,306.915 400.103,306.802C399.724,306.122 399.239,305.501 398.677,304.966C398.489,304.786 398.29,304.618 398.087,304.458C397.88,304.298 397.669,304.15 397.45,304.013C397.368,303.966 397.286,303.919 397.204,303.876C396.837,303.661 396.454,303.474 396.056,303.321C395.814,303.232 395.564,303.154 395.314,303.087C394.814,302.954 394.298,302.872 393.778,302.841C393.521,302.825 393.259,302.825 393.001,302.841C392.481,302.861 391.966,302.931 391.462,303.056C390.958,303.181 390.466,303.353 389.997,303.575C388.165,304.435 386.743,305.978 386.032,307.868L382.317,317.31L322.954,174.1L322.95,174.09ZM186.43,180.188L129.641,317.198L125.969,307.87C124.867,304.944 122.121,302.963 119,302.838C116.352,302.729 113.828,303.979 112.309,306.151C110.789,308.319 110.477,311.116 111.481,313.569L121.055,337.909L160.02,337.909L186.43,248.698L212.84,337.909L251.805,337.909L186.43,180.199L186.43,180.188ZM272.653,310.678C272.641,310.678 272.626,310.678 272.61,310.709L272.618,310.709C272.633,310.678 272.645,310.678 272.657,310.678C272.661,310.674 272.665,310.678 272.665,310.678L272.673,310.678C272.676,310.678 272.68,310.709 272.676,310.721C272.673,310.752 272.669,310.768 272.661,310.803C272.63,310.936 272.551,311.166 272.434,311.478C272.2,312.1 271.801,313.053 271.298,314.232C270.29,316.592 268.848,319.853 267.395,323.213C265.942,326.568 264.481,330.014 263.426,332.732C262.899,334.092 262.473,335.271 262.204,336.162C262.067,336.607 261.973,336.986 261.923,337.279C261.872,337.572 261.864,337.779 261.915,337.893L261.923,337.893C261.876,337.783 261.883,337.572 261.93,337.283C261.981,336.99 262.079,336.615 262.212,336.17C262.481,335.275 262.907,334.1 263.434,332.74C264.489,330.021 265.95,326.576 267.403,323.221C268.856,319.865 270.298,316.6 271.305,314.24C271.809,313.06 272.208,312.111 272.442,311.486C272.559,311.174 272.637,310.947 272.669,310.811C272.676,310.779 272.68,310.748 272.684,310.728C272.688,310.697 272.684,310.689 272.68,310.682L272.669,310.682C272.661,310.678 272.661,310.682 272.653,310.682L272.653,310.678Z" style="fill:white;"/>
        </g>
    </g>
</svg>
